X: 305811
M: 2/4
L: 1/16
K: G
d4 cBAG | GFAF GFED | GABc dBec | BAGF G2 H|]
d2d2 ed^cd | e2e2 fede | f2f2 gfef | gaba ged^c |\
d2d2 ed^cd | e2e2 fede | f2f2 gfed | a4 "^D.C."a2 H|]
M: C|
L: 1/8
d3c B2c2 | defg A3B | c2c2 Bc d/c/B/A/ | G2 (3(GAB) cBAG |\
d3c B2c2 | defg A3B | c2c2 B/g/f/g/ f/e/d/c/ | B2A2 "^D.C."G2 |]
M: 6/8
L: 1/8
c |\
d |\
d^cd A2d | d^cd g2a | bag fed | d2c A2d |\
d^cd A2d | d^cd g2a | bag fed | A2^c "^D.C."d2 |]


